src/ipa/rpi/pisp/data/mira050.json
{
    "version": 2.0,
    "target": "bcm2835",
    "algorithms": [
        {
            "rpi.black_level":
            {
                "black_level": 2500
            }
        },
        {
            "rpi.dpc": { }
        },
        {
            "rpi.lux":
            {
                "reference_shutter_speed": 33316,
                "reference_gain": 1.0,
                "reference_aperture": 1.0,
                "reference_lux": 530,
                "reference_Y": 9873
            }
        },
        {
            "rpi.noise":
            {
                "reference_constant": 0,
                "reference_slope": 2.671
            }
        },
        {
            "rpi.geq":
            {
                "offset": 215,
                "slope": 0.01058
            }
        },
        {
            "rpi.sdn": { }
        },
        {
            "rpi.awb":
            {
                "priors": [
                    {
                        "lux": 0,
                        "prior":
                        [
                            2000, 1.0,
                            3000, 0.0,
                            13000, 0.0
                        ]
                    },
                    {
                        "lux": 800,
                        "prior":
                        [
                            2000, 0.0,
                            6000, 2.0,
                            13000, 2.0
                        ]
                    },
                    {
                        "lux": 1500,
                        "prior":
                        [
                            2000, 0.0,
                            4000, 1.0,
                            6000, 6.0,
                            6500, 7.0,
                            7000, 1.0,
                            13000, 1.0
                        ]
                    }
                ],
                "modes":
                {
                    "auto":
                    {
                        "lo": 2500,
                        "hi": 8000
                    },
                    "incandescent":
                    {
                        "lo": 2500,
                        "hi": 3000
                    },
                    "tungsten":
                    {
                        "lo": 3000,
                        "hi": 3500
                    },
                    "fluorescent":
                    {
                        "lo": 4000,
                        "hi": 4700
                    },
                    "indoor":
                    {
                        "lo": 3000,
                        "hi": 5000
                    },
                    "daylight":
                    {
                        "lo": 5500,
                        "hi": 6500
                    },
                    "cloudy":
                    {
                        "lo": 7000,
                        "hi": 8600
                    }
                },
                "bayes": 1,
                "ct_curve":
                [
                    2500.0, 0.5386, 0.2458,
                    2800.0, 0.4883, 0.3303,
                    2900.0, 0.4855, 0.3349,
                    3620.0, 0.4203, 0.4367,
                    4560.0, 0.3455, 0.5444,
                    5600.0, 0.2948, 0.6124,
                    7400.0, 0.2336, 0.6894
                ],
                "sensitivity_r": 1.0,
                "sensitivity_b": 1.0,
                "transverse_pos": 0.03093,
                "transverse_neg": 0.02374
            }
        },
        {
            "rpi.agc":
            {
                "metering_modes":
                {
                    "centre-weighted":
                    {
                        "weights":
                        [
                            0, 0, 1, 1, 1, 1, 1, 1, 1, 1, 1, 1, 1, 0, 0,
                            0, 1, 1, 1, 1, 1, 2, 2, 2, 1, 1, 1, 1, 1, 0,
                            1, 1, 1, 1, 2, 2, 2, 2, 2, 2, 2, 1, 1, 1, 1,
                            1, 1, 2, 2, 2, 2, 2, 2, 2, 2, 2, 2, 2, 1, 1,
                            1, 1, 2, 2, 2, 2, 3, 3, 3, 2, 2, 2, 2, 1, 1,
                            1, 1, 2, 2, 2, 3, 3, 3, 3, 3, 2, 2, 2, 1, 1,
                            1, 1, 2, 2, 3, 3, 3, 4, 3, 3, 3, 2, 2, 1, 1,
                            1, 1, 2, 2, 3, 3, 4, 4, 4, 3, 3, 2, 2, 1, 1,
                            1, 1, 2, 2, 3, 3, 3, 4, 3, 3, 3, 2, 2, 1, 1,
                            1, 1, 2, 2, 2, 3, 3, 3, 3, 3, 2, 2, 2, 1, 1,
                            1, 1, 2, 2, 2, 2, 3, 3, 3, 2, 2, 2, 2, 1, 1,
                            1, 1, 2, 2, 2, 2, 2, 2, 2, 2, 2, 2, 2, 1, 1,
                            1, 1, 1, 1, 2, 2, 2, 2, 2, 2, 2, 1, 1, 1, 1,
                            0, 1, 1, 1, 1, 1, 2, 2, 2, 1, 1, 1, 1, 1, 0,
                            0, 0, 1, 1, 1, 1, 1, 1, 1, 1, 1, 1, 1, 0, 0
                        ]
                    },
                    "spot":
                    {
                        "weights":
                        [
                            0, 0, 1, 1, 1, 1, 1, 1, 1, 1, 1, 1, 1, 0, 0,
                            0, 1, 1, 1, 1, 1, 2, 2, 2, 1, 1, 1, 1, 1, 0,
                            1, 1, 1, 1, 2, 2, 2, 2, 2, 2, 2, 1, 1, 1, 1,
                            1, 1, 2, 2, 2, 2, 2, 2, 2, 2, 2, 2, 2, 1, 1,
                            1, 1, 2, 2, 2, 2, 3, 3, 3, 2, 2, 2, 2, 1, 1,
                            1, 1, 2, 2, 2, 3, 3, 3, 3, 3, 2, 2, 2, 1, 1,
                            1, 1, 2, 2, 3, 3, 3, 4, 3, 3, 3, 2, 2, 1, 1,
                            1, 1, 2, 2, 3, 3, 4, 4, 4, 3, 3, 2, 2, 1, 1,
                            1, 1, 2, 2, 3, 3, 3, 4, 3, 3, 3, 2, 2, 1, 1,
                            1, 1, 2, 2, 2, 3, 3, 3, 3, 3, 2, 2, 2, 1, 1,
                            1, 1, 2, 2, 2, 2, 3, 3, 3, 2, 2, 2, 2, 1, 1,
                            1, 1, 2, 2, 2, 2, 2, 2, 2, 2, 2, 2, 2, 1, 1,
                            1, 1, 1, 1, 2, 2, 2, 2, 2, 2, 2, 1, 1, 1, 1,
                            0, 1, 1, 1, 1, 1, 2, 2, 2, 1, 1, 1, 1, 1, 0,
                            0, 0, 1, 1, 1, 1, 1, 1, 1, 1, 1, 1, 1, 0, 0
                        ]
                    },
                    "matrix":
                    {
                        "weights":
                        [
                            0, 0, 1, 1, 1, 1, 1, 1, 1, 1, 1, 1, 1, 0, 0,
                            0, 1, 1, 1, 1, 1, 2, 2, 2, 1, 1, 1, 1, 1, 0,
                            1, 1, 1, 1, 2, 2, 2, 2, 2, 2, 2, 1, 1, 1, 1,
                            1, 1, 2, 2, 2, 2, 2, 2, 2, 2, 2, 2, 2, 1, 1,
                            1, 1, 2, 2, 2, 2, 3, 3, 3, 2, 2, 2, 2, 1, 1,
                            1, 1, 2, 2, 2, 3, 3, 3, 3, 3, 2, 2, 2, 1, 1,
                            1, 1, 2, 2, 3, 3, 3, 4, 3, 3, 3, 2, 2, 1, 1,
                            1, 1, 2, 2, 3, 3, 4, 4, 4, 3, 3, 2, 2, 1, 1,
                            1, 1, 2, 2, 3, 3, 3, 4, 3, 3, 3, 2, 2, 1, 1,
                            1, 1, 2, 2, 2, 3, 3, 3, 3, 3, 2, 2, 2, 1, 1,
                            1, 1, 2, 2, 2, 2, 3, 3, 3, 2, 2, 2, 2, 1, 1,
                            1, 1, 2, 2, 2, 2, 2, 2, 2, 2, 2, 2, 2, 1, 1,
                            1, 1, 1, 1, 2, 2, 2, 2, 2, 2, 2, 1, 1, 1, 1,
                            0, 1, 1, 1, 1, 1, 2, 2, 2, 1, 1, 1, 1, 1, 0,
                            0, 0, 1, 1, 1, 1, 1, 1, 1, 1, 1, 1, 1, 0, 0
                        ]                    }
                },
                "exposure_modes":
                {
                    "normal":
                    {
                        "shutter": [ 100, 10000, 30000, 60000, 120000 ],
                        "gain": [ 1.0, 2.0, 4.0, 6.0, 6.0 ]
                    },
                    "short":
                    {
                        "shutter": [ 100, 5000, 10000, 20000, 120000 ],
                        "gain": [ 1.0, 2.0, 4.0, 6.0, 6.0 ]
                    }
                },
                "constraint_modes":
                {
                    "normal": [
                        {
                            "bound": "LOWER",
                            "q_lo": 0.98,
                            "q_hi": 1.0,
                            "y_target":
                            [
                                0, 0.5,
                                1000, 0.5
                            ]
                        }
                    ],
                    "highlight": [
                        {
                            "bound": "LOWER",
                            "q_lo": 0.98,
                            "q_hi": 1.0,
                            "y_target":
                            [
                                0, 0.5,
                                1000, 0.5
                            ]
                        },
                        {
                            "bound": "UPPER",
                            "q_lo": 0.98,
                            "q_hi": 1.0,
                            "y_target":
                            [
                                0, 0.8,
                                1000, 0.8
                            ]
                        }
                    ]
                },
                "y_target":
                [
                    0, 0.16,
                    1000, 0.165,
                    10000, 0.17
                ]
            }
        },
        {
            "rpi.alsc":
            {
                "omega": 1.3,
                "n_iter": 100,
                "luminance_strength": 0.8,
                "calibrations_Cr": [
                    {
                        "ct": 3000,
                        "table":
                        [
                            1.238, 1.238, 1.238, 1.234, 1.227, 1.216, 1.207, 1.198, 1.191, 1.179, 1.169, 1.162, 1.155, 1.153, 1.152, 1.152, 1.152, 1.153, 1.154, 1.157, 1.166, 1.176, 1.183, 1.191, 1.204, 1.216, 1.226, 1.232, 1.239, 1.241, 1.241, 1.242,
                            1.235, 1.234, 1.227, 1.222, 1.214, 1.203, 1.193, 1.184, 1.169, 1.161, 1.149, 1.139, 1.131, 1.126, 1.122, 1.121, 1.121, 1.123, 1.129, 1.136, 1.145, 1.157, 1.163, 1.175, 1.189, 1.199, 1.212, 1.221, 1.225, 1.231, 1.241, 1.242,
                            1.234, 1.227, 1.222, 1.214, 1.203, 1.193, 1.183, 1.169, 1.158, 1.145, 1.133, 1.123, 1.113, 1.106, 1.101, 1.101, 1.101, 1.105, 1.111, 1.116, 1.128, 1.137, 1.149, 1.163, 1.174, 1.189, 1.199, 1.212, 1.221, 1.226, 1.234, 1.241,
                            1.234, 1.226, 1.217, 1.209, 1.195, 1.183, 1.171, 1.158, 1.145, 1.131, 1.119, 1.108, 1.097, 1.088, 1.088, 1.085, 1.085, 1.087, 1.095, 1.102, 1.114, 1.124, 1.137, 1.149, 1.165, 1.176, 1.194, 1.207, 1.214, 1.224, 1.235, 1.247,
                            1.238, 1.224, 1.213, 1.202, 1.187, 1.175, 1.161, 1.146, 1.132, 1.117, 1.105, 1.094, 1.082, 1.074, 1.071, 1.071, 1.071, 1.073, 1.079, 1.089, 1.099, 1.112, 1.124, 1.137, 1.152, 1.167, 1.183, 1.198, 1.211, 1.222, 1.235, 1.249,
                            1.232, 1.221, 1.209, 1.195, 1.178, 1.163, 1.149, 1.134, 1.118, 1.104, 1.093, 1.079, 1.069, 1.061, 1.057, 1.056, 1.056, 1.059, 1.066, 1.073, 1.086, 1.098, 1.111, 1.124, 1.141, 1.157, 1.173, 1.188, 1.203, 1.219, 1.234, 1.251,
                            1.231, 1.213, 1.197, 1.186, 1.169, 1.151, 1.137, 1.121, 1.104, 1.093, 1.079, 1.068, 1.056, 1.048, 1.045, 1.042, 1.042, 1.045, 1.051, 1.061, 1.071, 1.085, 1.098, 1.111, 1.129, 1.145, 1.161, 1.179, 1.197, 1.215, 1.231, 1.249,
                            1.224, 1.211, 1.194, 1.178, 1.161, 1.141, 1.127, 1.109, 1.094, 1.081, 1.068, 1.055, 1.047, 1.038, 1.034, 1.032, 1.032, 1.035, 1.039, 1.048, 1.059, 1.071, 1.086, 1.098, 1.116, 1.134, 1.154, 1.172, 1.191, 1.209, 1.228, 1.249,
                            1.223, 1.206, 1.187, 1.171, 1.152, 1.132, 1.117, 1.098, 1.082, 1.069, 1.056, 1.045, 1.037, 1.028, 1.024, 1.022, 1.022, 1.025, 1.031, 1.039, 1.048, 1.059, 1.074, 1.091, 1.106, 1.126, 1.144, 1.163, 1.186, 1.205, 1.227, 1.247,
                            1.222, 1.199, 1.183, 1.164, 1.143, 1.126, 1.108, 1.091, 1.075, 1.059, 1.045, 1.037, 1.028, 1.019, 1.015, 1.014, 1.014, 1.018, 1.023, 1.031, 1.042, 1.051, 1.065, 1.081, 1.098, 1.118, 1.137, 1.158, 1.181, 1.201, 1.224, 1.245,
                            1.221, 1.198, 1.179, 1.163, 1.141, 1.119, 1.101, 1.083, 1.066, 1.051, 1.038, 1.028, 1.019, 1.012, 1.009, 1.008, 1.007, 1.008, 1.015, 1.023, 1.033, 1.044, 1.058, 1.072, 1.089, 1.107, 1.131, 1.152, 1.172, 1.196, 1.216, 1.241,
                            1.216, 1.194, 1.174, 1.155, 1.133, 1.112, 1.094, 1.074, 1.059, 1.045, 1.032, 1.021, 1.012, 1.007, 1.003, 1.002, 1.002, 1.003, 1.008, 1.015, 1.025, 1.038, 1.049, 1.067, 1.084, 1.102, 1.126, 1.147, 1.169, 1.191, 1.214, 1.238,
                            1.212, 1.188, 1.171, 1.149, 1.127, 1.105, 1.087, 1.069, 1.055, 1.039, 1.027, 1.016, 1.007, 1.003, 0.999, 0.997, 0.998, 1.001, 1.003, 1.011, 1.021, 1.032, 1.043, 1.059, 1.077, 1.101, 1.121, 1.142, 1.164, 1.187, 1.211, 1.236,
                            1.208, 1.187, 1.169, 1.149, 1.124, 1.104, 1.085, 1.067, 1.051, 1.036, 1.024, 1.013, 1.005, 0.999, 0.996, 0.994, 0.994, 0.996, 1.001, 1.006, 1.017, 1.025, 1.038, 1.053, 1.072, 1.093, 1.116, 1.138, 1.159, 1.183, 1.207, 1.235,
                            1.208, 1.181, 1.164, 1.144, 1.122, 1.098, 1.079, 1.062, 1.046, 1.033, 1.018, 1.009, 1.002, 0.996, 0.992, 0.989, 0.991, 0.994, 0.996, 1.002, 1.012, 1.021, 1.035, 1.051, 1.069, 1.091, 1.113, 1.137, 1.157, 1.182, 1.206, 1.233,
                            1.206, 1.179, 1.163, 1.142, 1.119, 1.098, 1.079, 1.061, 1.045, 1.031, 1.017, 1.008, 1.001, 0.995, 0.991, 0.989, 0.989, 0.992, 0.996, 1.001, 1.011, 1.019, 1.034, 1.051, 1.069, 1.089, 1.112, 1.136, 1.157, 1.181, 1.205, 1.233,
                            1.206, 1.179, 1.163, 1.139, 1.119, 1.098, 1.079, 1.061, 1.044, 1.031, 1.016, 1.007, 1.001, 0.995, 0.991, 0.989, 0.989, 0.991, 0.996, 1.002, 1.011, 1.019, 1.034, 1.049, 1.069, 1.088, 1.113, 1.136, 1.156, 1.179, 1.204, 1.233,
                            1.207, 1.179, 1.163, 1.139, 1.119, 1.099, 1.079, 1.061, 1.044, 1.031, 1.017, 1.007, 1.001, 0.995, 0.991, 0.989, 0.989, 0.992, 0.997, 1.003, 1.011, 1.021, 1.034, 1.051, 1.071, 1.089, 1.112, 1.136, 1.157, 1.179, 1.204, 1.233,
                            1.207, 1.179, 1.163, 1.143, 1.121, 1.101, 1.082, 1.063, 1.047, 1.032, 1.019, 1.009, 1.003, 0.998, 0.994, 0.991, 0.991, 0.995, 0.999, 1.004, 1.013, 1.024, 1.038, 1.052, 1.071, 1.091, 1.112, 1.136, 1.159, 1.181, 1.205, 1.233,
                            1.207, 1.185, 1.166, 1.148, 1.124, 1.104, 1.087, 1.068, 1.052, 1.037, 1.025, 1.016, 1.006, 1.002, 0.998, 0.995, 0.995, 0.999, 1.003, 1.008, 1.017, 1.029, 1.043, 1.056, 1.076, 1.094, 1.116, 1.138, 1.159, 1.183, 1.205, 1.232,
                            1.211, 1.186, 1.167, 1.151, 1.128, 1.108, 1.089, 1.072, 1.057, 1.042, 1.031, 1.021, 1.013, 1.006, 1.002, 0.999, 0.999, 1.003, 1.007, 1.013, 1.021, 1.031, 1.047, 1.062, 1.081, 1.098, 1.121, 1.141, 1.164, 1.185, 1.207, 1.232,
                            1.211, 1.188, 1.169, 1.154, 1.134, 1.114, 1.094, 1.078, 1.063, 1.051, 1.039, 1.028, 1.019, 1.013, 1.007, 1.006, 1.006, 1.007, 1.013, 1.019, 1.027, 1.039, 1.051, 1.069, 1.087, 1.105, 1.124, 1.146, 1.165, 1.186, 1.209, 1.232,
                            1.214, 1.191, 1.175, 1.159, 1.141, 1.123, 1.105, 1.087, 1.072, 1.058, 1.046, 1.036, 1.028, 1.019, 1.014, 1.013, 1.013, 1.015, 1.019, 1.027, 1.037, 1.048, 1.061, 1.076, 1.094, 1.109, 1.132, 1.149, 1.169, 1.189, 1.209, 1.233,
                            1.219, 1.194, 1.179, 1.163, 1.146, 1.129, 1.113, 1.095, 1.081, 1.066, 1.055, 1.045, 1.036, 1.029, 1.023, 1.021, 1.021, 1.026, 1.031, 1.037, 1.048, 1.057, 1.069, 1.085, 1.101, 1.118, 1.137, 1.156, 1.174, 1.193, 1.213, 1.233,
                            1.219, 1.199, 1.184, 1.172, 1.155, 1.138, 1.122, 1.104, 1.088, 1.075, 1.065, 1.055, 1.045, 1.038, 1.034, 1.031, 1.031, 1.035, 1.041, 1.048, 1.057, 1.066, 1.081, 1.096, 1.111, 1.125, 1.146, 1.164, 1.178, 1.196, 1.214, 1.233,
                            1.222, 1.204, 1.189, 1.178, 1.162, 1.148, 1.132, 1.115, 1.101, 1.087, 1.075, 1.064, 1.055, 1.048, 1.043, 1.042, 1.042, 1.046, 1.049, 1.057, 1.066, 1.076, 1.089, 1.106, 1.121, 1.133, 1.149, 1.167, 1.183, 1.199, 1.215, 1.234,
                            1.222, 1.205, 1.191, 1.184, 1.171, 1.155, 1.142, 1.124, 1.109, 1.097, 1.087, 1.077, 1.065, 1.059, 1.055, 1.053, 1.053, 1.057, 1.059, 1.067, 1.076, 1.088, 1.102, 1.116, 1.131, 1.143, 1.157, 1.175, 1.187, 1.202, 1.215, 1.231,
                            1.223, 1.211, 1.198, 1.189, 1.178, 1.165, 1.151, 1.136, 1.122, 1.108, 1.097, 1.087, 1.079, 1.073, 1.067, 1.066, 1.066, 1.069, 1.074, 1.079, 1.088, 1.101, 1.114, 1.128, 1.141, 1.152, 1.166, 1.182, 1.194, 1.205, 1.215, 1.229,
                            1.223, 1.212, 1.204, 1.197, 1.186, 1.173, 1.161, 1.149, 1.133, 1.121, 1.108, 1.101, 1.092, 1.085, 1.082, 1.082, 1.082, 1.085, 1.091, 1.096, 1.101, 1.113, 1.125, 1.138, 1.151, 1.164, 1.175, 1.188, 1.198, 1.207, 1.215, 1.222,
                            1.217, 1.213, 1.211, 1.203, 1.194, 1.181, 1.169, 1.158, 1.145, 1.133, 1.123, 1.113, 1.106, 1.097, 1.096, 1.094, 1.094, 1.098, 1.104, 1.108, 1.114, 1.124, 1.137, 1.149, 1.161, 1.172, 1.182, 1.194, 1.203, 1.209, 1.211, 1.217,
                            1.214, 1.211, 1.209, 1.206, 1.201, 1.188, 1.179, 1.168, 1.154, 1.144, 1.136, 1.126, 1.119, 1.112, 1.109, 1.108, 1.108, 1.108, 1.117, 1.119, 1.124, 1.133, 1.147, 1.158, 1.171, 1.178, 1.188, 1.198, 1.205, 1.208, 1.209, 1.211,
                            1.207, 1.208, 1.209, 1.206, 1.202, 1.192, 1.182, 1.171, 1.159, 1.146, 1.142, 1.136, 1.126, 1.119, 1.116, 1.114, 1.115, 1.117, 1.119, 1.128, 1.129, 1.136, 1.155, 1.162, 1.176, 1.182, 1.188, 1.198, 1.205, 1.208, 1.207, 1.206
                        ]
                    },
                    {
                        "ct": 5000,
                        "table":
                        [
                            1.879, 1.878, 1.872, 1.862, 1.856, 1.842, 1.826, 1.815, 1.811, 1.799, 1.787, 1.777, 1.768, 1.761, 1.761, 1.761, 1.762, 1.763, 1.764, 1.769, 1.776, 1.789, 1.799, 1.807, 1.824, 1.841, 1.853, 1.861, 1.871, 1.874, 1.885, 1.889,
                            1.879, 1.875, 1.859, 1.846, 1.835, 1.817, 1.806, 1.794, 1.777, 1.771, 1.755, 1.743, 1.733, 1.726, 1.721, 1.721, 1.721, 1.722, 1.729, 1.734, 1.747, 1.759, 1.771, 1.783, 1.801, 1.813, 1.831, 1.841, 1.849, 1.862, 1.876, 1.888,
                            1.876, 1.861, 1.846, 1.835, 1.817, 1.806, 1.793, 1.777, 1.766, 1.752, 1.736, 1.727, 1.713, 1.702, 1.696, 1.695, 1.695, 1.697, 1.704, 1.715, 1.725, 1.739, 1.754, 1.771, 1.783, 1.801, 1.813, 1.831, 1.841, 1.851, 1.866, 1.888,
                            1.878, 1.861, 1.843, 1.829, 1.811, 1.794, 1.779, 1.766, 1.751, 1.734, 1.721, 1.711, 1.695, 1.682, 1.679, 1.677, 1.677, 1.678, 1.687, 1.696, 1.713, 1.723, 1.737, 1.754, 1.774, 1.785, 1.811, 1.825, 1.833, 1.849, 1.866, 1.889,
                            1.882, 1.859, 1.837, 1.821, 1.803, 1.784, 1.769, 1.752, 1.735, 1.717, 1.701, 1.689, 1.676, 1.664, 1.659, 1.658, 1.658, 1.659, 1.668, 1.679, 1.694, 1.711, 1.723, 1.739, 1.756, 1.777, 1.797, 1.813, 1.827, 1.844, 1.865, 1.889,
                            1.869, 1.849, 1.832, 1.811, 1.792, 1.772, 1.755, 1.737, 1.717, 1.699, 1.688, 1.674, 1.661, 1.646, 1.642, 1.638, 1.638, 1.641, 1.651, 1.659, 1.676, 1.693, 1.708, 1.724, 1.744, 1.763, 1.783, 1.801, 1.819, 1.838, 1.864, 1.889,
                            1.869, 1.841, 1.817, 1.801, 1.782, 1.758, 1.741, 1.721, 1.699, 1.688, 1.674, 1.658, 1.643, 1.632, 1.627, 1.621, 1.621, 1.622, 1.631, 1.643, 1.658, 1.676, 1.689, 1.708, 1.729, 1.748, 1.767, 1.791, 1.812, 1.836, 1.859, 1.891,
                            1.861, 1.836, 1.814, 1.792, 1.772, 1.745, 1.728, 1.707, 1.688, 1.673, 1.658, 1.643, 1.629, 1.618, 1.612, 1.609, 1.609, 1.611, 1.615, 1.629, 1.642, 1.658, 1.676, 1.689, 1.711, 1.734, 1.758, 1.782, 1.804, 1.827, 1.859, 1.891,
                            1.861, 1.829, 1.807, 1.784, 1.759, 1.735, 1.717, 1.692, 1.674, 1.659, 1.644, 1.629, 1.617, 1.605, 1.598, 1.595, 1.595, 1.598, 1.607, 1.615, 1.631, 1.642, 1.661, 1.681, 1.701, 1.724, 1.746, 1.771, 1.799, 1.825, 1.857, 1.891,
                            1.861, 1.826, 1.804, 1.779, 1.749, 1.729, 1.707, 1.687, 1.665, 1.648, 1.629, 1.617, 1.604, 1.595, 1.589, 1.585, 1.585, 1.592, 1.597, 1.607, 1.623, 1.635, 1.652, 1.674, 1.693, 1.716, 1.739, 1.766, 1.794, 1.822, 1.855, 1.889,
                            1.861, 1.824, 1.799, 1.777, 1.748, 1.723, 1.701, 1.678, 1.657, 1.639, 1.619, 1.605, 1.596, 1.586, 1.581, 1.579, 1.577, 1.579, 1.588, 1.597, 1.612, 1.625, 1.641, 1.661, 1.681, 1.702, 1.732, 1.757, 1.785, 1.813, 1.847, 1.882,
                            1.856, 1.819, 1.796, 1.767, 1.739, 1.714, 1.693, 1.666, 1.651, 1.629, 1.613, 1.597, 1.586, 1.579, 1.576, 1.572, 1.572, 1.573, 1.579, 1.588, 1.602, 1.619, 1.633, 1.655, 1.674, 1.698, 1.729, 1.754, 1.782, 1.809, 1.842, 1.874,
                            1.853, 1.815, 1.792, 1.761, 1.734, 1.707, 1.682, 1.659, 1.639, 1.622, 1.605, 1.591, 1.579, 1.574, 1.569, 1.565, 1.566, 1.569, 1.573, 1.584, 1.597, 1.609, 1.624, 1.645, 1.666, 1.695, 1.722, 1.746, 1.772, 1.799, 1.835, 1.873,
                            1.847, 1.811, 1.789, 1.759, 1.732, 1.703, 1.681, 1.657, 1.637, 1.619, 1.603, 1.588, 1.575, 1.569, 1.563, 1.561, 1.561, 1.563, 1.569, 1.576, 1.589, 1.601, 1.616, 1.636, 1.659, 1.686, 1.712, 1.741, 1.767, 1.798, 1.832, 1.873,
                            1.847, 1.803, 1.779, 1.756, 1.727, 1.699, 1.674, 1.652, 1.632, 1.616, 1.595, 1.583, 1.572, 1.564, 1.558, 1.556, 1.557, 1.559, 1.563, 1.569, 1.583, 1.593, 1.613, 1.633, 1.657, 1.684, 1.709, 1.741, 1.766, 1.796, 1.831, 1.871,
                            1.845, 1.802, 1.779, 1.755, 1.725, 1.696, 1.673, 1.649, 1.629, 1.614, 1.595, 1.582, 1.572, 1.563, 1.557, 1.556, 1.556, 1.558, 1.562, 1.569, 1.581, 1.593, 1.612, 1.633, 1.656, 1.679, 1.709, 1.741, 1.764, 1.796, 1.828, 1.869,
                            1.845, 1.801, 1.779, 1.749, 1.723, 1.697, 1.673, 1.649, 1.627, 1.613, 1.593, 1.581, 1.573, 1.563, 1.558, 1.555, 1.555, 1.556, 1.562, 1.573, 1.581, 1.594, 1.611, 1.633, 1.656, 1.679, 1.711, 1.739, 1.764, 1.794, 1.828, 1.869,
                            1.844, 1.801, 1.781, 1.749, 1.723, 1.697, 1.673, 1.649, 1.627, 1.614, 1.595, 1.581, 1.574, 1.564, 1.559, 1.557, 1.556, 1.559, 1.564, 1.574, 1.582, 1.595, 1.611, 1.634, 1.659, 1.683, 1.709, 1.739, 1.765, 1.794, 1.829, 1.872,
                            1.845, 1.802, 1.781, 1.754, 1.725, 1.701, 1.677, 1.652, 1.632, 1.616, 1.599, 1.586, 1.576, 1.569, 1.563, 1.559, 1.558, 1.562, 1.569, 1.576, 1.587, 1.599, 1.618, 1.635, 1.661, 1.685, 1.709, 1.739, 1.767, 1.796, 1.829, 1.868,
                            1.845, 1.809, 1.785, 1.762, 1.731, 1.706, 1.685, 1.659, 1.641, 1.622, 1.606, 1.595, 1.581, 1.575, 1.569, 1.564, 1.564, 1.569, 1.574, 1.582, 1.594, 1.607, 1.625, 1.642, 1.668, 1.687, 1.716, 1.741, 1.769, 1.798, 1.829, 1.868,
                            1.849, 1.811, 1.785, 1.765, 1.734, 1.709, 1.688, 1.666, 1.647, 1.628, 1.613, 1.601, 1.592, 1.581, 1.575, 1.572, 1.572, 1.575, 1.581, 1.589, 1.599, 1.611, 1.631, 1.649, 1.673, 1.694, 1.721, 1.747, 1.771, 1.798, 1.829, 1.868,
                            1.849, 1.816, 1.787, 1.766, 1.739, 1.716, 1.692, 1.673, 1.657, 1.641, 1.625, 1.612, 1.599, 1.592, 1.584, 1.581, 1.581, 1.581, 1.589, 1.598, 1.608, 1.622, 1.639, 1.659, 1.679, 1.701, 1.724, 1.751, 1.774, 1.802, 1.832, 1.868,
                            1.855, 1.816, 1.793, 1.773, 1.748, 1.727, 1.707, 1.686, 1.667, 1.649, 1.636, 1.623, 1.612, 1.599, 1.594, 1.592, 1.591, 1.591, 1.598, 1.608, 1.621, 1.634, 1.649, 1.669, 1.693, 1.705, 1.736, 1.757, 1.778, 1.804, 1.833, 1.867,
