src/ipa/rpi/pisp/data/mira016.json
{
    "version": 2.0,
    "target": "pisp",
    "algorithms": [
        {
            "rpi.black_level":
            {
                "black_level": 2500
            }
        },
        {
            "rpi.dpc": { }
        },
        {
            "rpi.lux":
            {
                "reference_shutter_speed": 33316,
                "reference_gain": 1.0,
                "reference_aperture": 1.0,
                "reference_lux": 530,
                "reference_Y": 9873
            }
        },
        {
            "rpi.noise":
            {
                "reference_constant": 0,
                "reference_slope": 2.671
            }
        },
        {
            "rpi.geq":
            {
                "offset": 215,
                "slope": 0.01058
            }
        },
        {
            "rpi.denoise":
            {
                "normal":
                {
                    "sdn":
                    {
                        "deviation": 1.6,
                        "strength": 0.5,
                        "deviation2": 3.2,
                        "deviation_no_tdn": 3.2,
                        "strength_no_tdn": 0.75
                    },
                    "cdn":
                    {
                        "deviation": 200,
                        "strength": 0.3
                    },
                    "tdn":
                    {
                        "deviation": 0.8,
                        "threshold": 0.05
                    }
                },
                "hdr":
                {
                    "sdn":
                    {
                        "deviation": 1.6,
                        "strength": 0.5,
                        "deviation2": 3.2,
                        "deviation_no_tdn": 3.2,
                        "strength_no_tdn": 0.75
                    },
                    "cdn":
                    {
                        "deviation": 200,
                        "strength": 0.3
                    },
                    "tdn":
                    {
                        "deviation": 1.3,
                        "threshold": 0.1
                    }
                },
                "night":
                {
                    "sdn":
                    {
                        "deviation": 1.6,
                        "strength": 0.5,
                        "deviation2": 3.2,
                        "deviation_no_tdn": 3.2,
                        "strength_no_tdn": 0.75
                    },
                    "cdn":
                    {
                        "deviation": 200,
                        "strength": 0.3
                    },
                    "tdn":
                    {
                        "deviation": 1.3,
                        "threshold": 0.1
                    }
                }
            }
        },
        {
            "rpi.awb":
            {
                "priors": [
                    {
                        "lux": 0,
                        "prior":
                        [
                            2000, 1.0,
                            3000, 0.0,
                            13000, 0.0
                        ]
                    },
                    {
                        "lux": 800,
                        "prior":
                        [
                            2000, 0.0,
                            6000, 2.0,
                            13000, 2.0
                        ]
                    },
                    {
                        "lux": 1500,
                        "prior":
                        [
                            2000, 0.0,
                            4000, 1.0,
                            6000, 6.0,
                            6500, 7.0,
                            7000, 1.0,
                            13000, 1.0
                        ]
                    }
                ],
                "modes":
                {
                    "auto":
                    {
                        "lo": 2500,
                        "hi": 8000
                    },
                    "incandescent":
                    {
                        "lo": 2500,
                        "hi": 3000
                    },
                    "tungsten":
                    {
                        "lo": 3000,
                        "hi": 3500
                    },
                    "fluorescent":
                    {
                        "lo": 4000,
                        "hi": 4700
                    },
                    "indoor":
                    {
                        "lo": 3000,
                        "hi": 5000
                    },
                    "daylight":
                    {
                        "lo": 5500,
                        "hi": 6500
                    },
                    "cloudy":
                    {
                        "lo": 7000,
                        "hi": 8600
                    }
                },
                "bayes": 0,
                "ct_curve":
                [
                    2500.0, 1, 1,
                    8500.0, 1, 1,
                ],
                "sensitivity_r": 1.0,
                "sensitivity_b": 1.0,
                "transverse_pos": 0.03093,
                "transverse_neg": 0.02374
            }
        },
        {
            "rpi.agc":
            {
                "metering_modes":
                {
                    "centre-weighted":
                    {
                        "weights":
                        [
                            0, 0, 1, 1, 1, 1, 1, 1, 1, 1, 1, 1, 1, 0, 0,
                            0, 1, 1, 1, 1, 1, 2, 2, 2, 1, 1, 1, 1, 1, 0,
                            1, 1, 1, 1, 2, 2, 2, 2, 2, 2, 2, 1, 1, 1, 1,
                            1, 1, 2, 2, 2, 2, 2, 2, 2, 2, 2, 2, 2, 1, 1,
                            1, 1, 2, 2, 2, 2, 3, 3, 3, 2, 2, 2, 2, 1, 1,
                            1, 1, 2, 2, 2, 3, 3, 3, 3, 3, 2, 2, 2, 1, 1,
                            1, 1, 2, 2, 3, 3, 3, 4, 3, 3, 3, 2, 2, 1, 1,
                            1, 1, 2, 2, 3, 3, 4, 4, 4, 3, 3, 2, 2, 1, 1,
                            1, 1, 2, 2, 3, 3, 3, 4, 3, 3, 3, 2, 2, 1, 1,
                            1, 1, 2, 2, 2, 3, 3, 3, 3, 3, 2, 2, 2, 1, 1,
                            1, 1, 2, 2, 2, 2, 3, 3, 3, 2, 2, 2, 2, 1, 1,
                            1, 1, 2, 2, 2, 2, 2, 2, 2, 2, 2, 2, 2, 1, 1,
                            1, 1, 1, 1, 2, 2, 2, 2, 2, 2, 2, 1, 1, 1, 1,
                            0, 1, 1, 1, 1, 1, 2, 2, 2, 1, 1, 1, 1, 1, 0,
                            0, 0, 1, 1, 1, 1, 1, 1, 1, 1, 1, 1, 1, 0, 0
                        ]
                    },
                    "spot":
                    {
                        "weights":
                        [
                            0, 0, 0, 0, 0, 0, 0, 0, 0, 0, 0, 0, 0, 0, 0,
                            0, 0, 0, 0, 0, 0, 0, 0, 0, 0, 0, 0, 0, 0, 0,
                            0, 0, 0, 0, 0, 0, 0, 0, 0, 0, 0, 0, 0, 0, 0,
                            0, 0, 0, 0, 0, 0, 0, 0, 0, 0, 0, 0, 0, 0, 0,
                            0, 0, 0, 0, 0, 0, 0, 0, 0, 0, 0, 0, 0, 0, 0,
                            0, 0, 0, 0, 0, 0, 0, 1, 0, 0, 0, 0, 0, 0, 0,
                            0, 0, 0, 0, 0, 0, 1, 2, 1, 0, 0, 0, 0, 0, 0,
                            0, 0, 0, 0, 0, 1, 2, 3, 2, 1, 0, 0, 0, 0, 0,
                            0, 0, 0, 0, 0, 0, 1, 2, 1, 0, 0, 0, 0, 0, 0,
                            0, 0, 0, 0, 0, 0, 0, 1, 0, 0, 0, 0, 0, 0, 0,
                            0, 0, 0, 0, 0, 0, 0, 0, 0, 0, 0, 0, 0, 0, 0,
                            0, 0, 0, 0, 0, 0, 0, 0, 0, 0, 0, 0, 0, 0, 0,
                            0, 0, 0, 0, 0, 0, 0, 0, 0, 0, 0, 0, 0, 0, 0,
                            0, 0, 0, 0, 0, 0, 0, 0, 0, 0, 0, 0, 0, 0, 0,
                            0, 0, 0, 0, 0, 0, 0, 0, 0, 0, 0, 0, 0, 0, 0
                        ]
                    },
                    "matrix":
                    {
                        "weights":
                        [
                            1, 1, 1, 1, 1, 1, 1, 1, 1, 1, 1, 1, 1, 1, 1,
                            1, 1, 1, 1, 1, 1, 1, 1, 1, 1, 1, 1, 1, 1, 1,
                            1, 1, 1, 1, 1, 1, 1, 1, 1, 1, 1, 1, 1, 1, 1,
                            1, 1, 1, 1, 1, 1, 1, 1, 1, 1, 1, 1, 1, 1, 1,
                            1, 1, 1, 1, 1, 1, 1, 1, 1, 1, 1, 1, 1, 1, 1,
                            1, 1, 1, 1, 1, 1, 1, 1, 1, 1, 1, 1, 1, 1, 1,
                            1, 1, 1, 1, 1, 1, 1, 1, 1, 1, 1, 1, 1, 1, 1,
                            1, 1, 1, 1, 1, 1, 1, 1, 1, 1, 1, 1, 1, 1, 1,
                            1, 1, 1, 1, 1, 1, 1, 1, 1, 1, 1, 1, 1, 1, 1,
                            1, 1, 1, 1, 1, 1, 1, 1, 1, 1, 1, 1, 1, 1, 1,
                            1, 1, 1, 1, 1, 1, 1, 1, 1, 1, 1, 1, 1, 1, 1,
                            1, 1, 1, 1, 1, 1, 1, 1, 1, 1, 1, 1, 1, 1, 1,
                            1, 1, 1, 1, 1, 1, 1, 1, 1, 1, 1, 1, 1, 1, 1,
                            1, 1, 1, 1, 1, 1, 1, 1, 1, 1, 1, 1, 1, 1, 1,
                            1, 1, 1, 1, 1, 1, 1, 1, 1, 1, 1, 1, 1, 1, 1
                        ]
                    }
                },
                "exposure_modes":
                {
                    "normal":
                    {
                        "shutter": [ 100, 30000, 45000, 60000, 120000 ],
                        "gain": [ 1.0, 1.0, 2.0, 4.0, 12.0 ]
                    },
                    "short":
                    {
                        "shutter": [ 100, 5000, 10000, 20000, 30000 ],
                        "gain": [ 1.0, 2.0, 4.0, 8.0, 16.0 ]
                    }
                },
                "constraint_modes":
                {
                    "normal": [
                        {
                            "bound": "LOWER",
                            "q_lo": 0.98,
                            "q_hi": 1.0,
                            "y_target":
                            [
                                0, 0.5,
                                1000, 0.5
                            ]
                        }
                    ],
                    "highlight": [
                        {
                            "bound": "LOWER",
                            "q_lo": 0.98,
                            "q_hi": 1.0,
                            "y_target":
                            [
                                0, 0.5,
                                1000, 0.5
                            ]
                        },
                        {
                            "bound": "UPPER",
                            "q_lo": 0.98,
                            "q_hi": 1.0,
                            "y_target":
                            [
                                0, 0.8,
                                1000, 0.8
                            ]
                        }
                    ]
                },
                "y_target":
                [
                    0, 0.16,
                    1000, 0.165,
                    10000, 0.17
                ]
            }
        },
        {
            "rpi.alsc":
            {
                "omega": 1.3,
                "n_iter": 100,
                "luminance_strength": 0.5,
                "calibrations_Cr": [
                    {
                        "ct": 4000,
                        "table":
                        [
                            2.726, 2.731, 2.736, 2.736, 2.737, 2.738, 2.739, 2.74, 2.741, 2.741, 2.741, 2.741, 2.742, 2.742, 2.742, 2.742, 2.743, 2.743, 2.743, 2.743, 2.742, 2.742, 2.742, 2.742, 2.742, 2.742, 2.742, 2.742, 2.741, 2.741, 2.74, 2.739,
                            2.727, 2.731, 2.736, 2.737, 2.738, 2.739, 2.74, 2.74, 2.741, 2.741, 2.742, 2.742, 2.743, 2.743, 2.743, 2.743, 2.744, 2.744, 2.744, 2.744, 2.743, 2.743, 2.743, 2.742, 2.742, 2.742, 2.742, 2.742, 2.742, 2.741, 2.741, 2.74,
                            2.727, 2.732, 2.736, 2.737, 2.738, 2.739, 2.74, 2.741, 2.742, 2.742, 2.742, 2.743, 2.743, 2.744, 2.744, 2.744, 2.745, 2.745, 2.745, 2.745, 2.744, 2.744, 2.743, 2.743, 2.742, 2.742, 2.742, 2.742, 2.742, 2.742, 2.741, 2.74,
                            2.728, 2.732, 2.736, 2.737, 2.739, 2.74, 2.741, 2.742, 2.742, 2.743, 2.743, 2.744, 2.744, 2.745, 2.745, 2.746, 2.746, 2.746, 2.746, 2.746, 2.746, 2.745, 2.744, 2.743, 2.743, 2.742, 2.742, 2.742, 2.742, 2.742, 2.742, 2.741,
                            2.728, 2.732, 2.736, 2.738, 2.74, 2.741, 2.742, 2.743, 2.743, 2.744, 2.745, 2.745, 2.745, 2.746, 2.746, 2.747, 2.748, 2.748, 2.748, 2.748, 2.747, 2.746, 2.745, 2.744, 2.743, 2.743, 2.743, 2.742, 2.742, 2.742, 2.742, 2.742,
                            2.729, 2.733, 2.737, 2.738, 2.74, 2.742, 2.743, 2.744, 2.745, 2.745, 2.746, 2.746, 2.747, 2.747, 2.748, 2.749, 2.749, 2.75, 2.75, 2.75, 2.749, 2.748, 2.746, 2.745, 2.744, 2.743, 2.743, 2.743, 2.743, 2.743, 2.743, 2.743,
                            2.729, 2.733, 2.737, 2.739, 2.741, 2.743, 2.744, 2.745, 2.746, 2.747, 2.747, 2.748, 2.748, 2.749, 2.749, 2.75, 2.751, 2.751, 2.751, 2.751, 2.75, 2.749, 2.748, 2.746, 2.745, 2.744, 2.744, 2.743, 2.743, 2.743, 2.743, 2.743,
                            2.729, 2.733, 2.737, 2.74, 2.742, 2.743, 2.745, 2.746, 2.747, 2.748, 2.748, 2.748, 2.749, 2.75, 2.75, 2.751, 2.752, 2.752, 2.752, 2.752, 2.751, 2.75, 2.749, 2.748, 2.746, 2.745, 2.744, 2.743, 2.743, 2.744, 2.744, 2.744,
                            2.729, 2.733, 2.738, 2.74, 2.742, 2.744, 2.745, 2.747, 2.748, 2.749, 2.749, 2.749, 2.75, 2.751, 2.751, 2.752, 2.752, 2.753, 2.753, 2.752, 2.752, 2.751, 2.751, 2.75, 2.747, 2.745, 2.745, 2.744, 2.744, 2.744, 2.745, 2.746,
                            2.729, 2.733, 2.738, 2.74, 2.742, 2.744, 2.746, 2.747, 2.749, 2.749, 2.749, 2.75, 2.751, 2.752, 2.752, 2.753, 2.753, 2.753, 2.753, 2.753, 2.753, 2.752, 2.751, 2.75, 2.748, 2.746, 2.745, 2.744, 2.744, 2.745, 2.746, 2.746,
                            2.728, 2.733, 2.737, 2.74, 2.742, 2.744, 2.746, 2.747, 2.749, 2.749, 2.75, 2.751, 2.752, 2.753, 2.753, 2.754, 2.754, 2.754, 2.754, 2.754, 2.753, 2.753, 2.752, 2.75, 2.749, 2.747, 2.746, 2.745, 2.745, 2.746, 2.746, 2.747,
                            2.728, 2.732, 2.737, 2.739, 2.742, 2.744, 2.746, 2.747, 2.749, 2.75, 2.751, 2.752, 2.753, 2.754, 2.754, 2.755, 2.754, 2.754, 2.755, 2.755, 2.754, 2.753, 2.752, 2.751, 2.749, 2.748, 2.747, 2.746, 2.746, 2.747, 2.747, 2.748,
                            2.727, 2.732, 2.737, 2.739, 2.742, 2.744, 2.746, 2.747, 2.749, 2.75, 2.751, 2.752, 2.754, 2.754, 2.755, 2.755, 2.754, 2.754, 2.755, 2.755, 2.754, 2.754, 2.752, 2.751, 2.749, 2.748, 2.747, 2.747, 2.747, 2.747, 2.748, 2.748,
                            2.726, 2.731, 2.737, 2.74, 2.742, 2.744, 2.746, 2.747, 2.749, 2.75, 2.751, 2.753, 2.754, 2.755, 2.755, 2.755, 2.755, 2.755, 2.755, 2.755, 2.754, 2.754, 2.752, 2.751, 2.75, 2.749, 2.748, 2.748, 2.748, 2.748, 2.748, 2.748,
                            2.724, 2.731, 2.738, 2.74, 2.742, 2.744, 2.746, 2.747, 2.749, 2.75, 2.751, 2.753, 2.754, 2.755, 2.755, 2.755, 2.755, 2.755, 2.755, 2.755, 2.754, 2.754, 2.753, 2.752, 2.75, 2.749, 2.749, 2.749, 2.748, 2.748, 2.748, 2.748,
                            2.725, 2.731, 2.738, 2.74, 2.741, 2.743, 2.745, 2.747, 2.749, 2.75, 2.752, 2.753, 2.754, 2.755, 2.755, 2.755, 2.755, 2.755, 2.755, 2.755, 2.754, 2.754, 2.753, 2.752, 2.75, 2.749, 2.749, 2.749, 2.748, 2.748, 2.748, 2.748,
                            2.725, 2.731, 2.738, 2.74, 2.741, 2.743, 2.745, 2.747, 2.749, 2.75, 2.752, 2.753, 2.754, 2.755, 2.755, 2.755, 2.755, 2.755, 2.755, 2.755, 2.754, 2.754, 2.753, 2.752, 2.75, 2.749, 2.749, 2.748, 2.748, 2.748, 2.748, 2.748,
                            2.726, 2.732, 2.738, 2.739, 2.741, 2.743, 2.745, 2.747, 2.748, 2.75, 2.752, 2.753, 2.754, 2.754, 2.755, 2.755, 2.755, 2.755, 2.755, 2.755, 2.754, 2.754, 2.753, 2.752, 2.751, 2.749, 2.748, 2.748, 2.748, 2.748, 2.748, 2.748,
                            2.726, 2.732, 2.738, 2.739, 2.741, 2.743, 2.745, 2.746, 2.747, 2.75, 2.752, 2.753, 2.753, 2.754, 2.754, 2.754, 2.754, 2.754, 2.754, 2.754, 2.754, 2.754, 2.753, 2.752, 2.75, 2.749, 2.748, 2.748, 2.748, 2.747, 2.747, 2.747,
                            2.726, 2.732, 2.738, 2.739, 2.741, 2.743, 2.745, 2.746, 2.747, 2.749, 2.751, 2.753, 2.753, 2.753, 2.753, 2.754, 2.754, 2.754, 2.754, 2.754, 2.754, 2.754, 2.752, 2.751, 2.75, 2.748, 2.748, 2.748, 2.747, 2.746, 2.746, 2.746,
                            2.726, 2.732, 2.737, 2.739, 2.741, 2.742, 2.744, 2.745, 2.746, 2.748, 2.751, 2.752, 2.753, 2.753, 2.753, 2.753, 2.753, 2.753, 2.753, 2.753, 2.753, 2.753, 2.752, 2.75, 2.749, 2.748, 2.748, 2.748, 2.747, 2.746, 2.745, 2.745,
                            2.726, 2.731, 2.737, 2.738, 2.739, 2.741, 2.743, 2.744, 2.745, 2.747, 2.75, 2.751, 2.752, 2.753, 2.753, 2.753, 2.753, 2.753, 2.753, 2.753, 2.753, 2.752, 2.751, 2.75, 2.749, 2.747, 2.747, 2.747, 2.746, 2.745, 2.744, 2.744,
                            2.726, 2.731, 2.736, 2.737, 2.738, 2.74, 2.742, 2.744, 2.745, 2.747, 2.749, 2.75, 2.752, 2.752, 2.753, 2.753, 2.752, 2.752, 2.752, 2.752, 2.752, 2.751, 2.75, 2.749, 2.748, 2.747, 2.746, 2.746, 2.745, 2.744, 2.743, 2.743,
                            2.726, 2.73, 2.735, 2.736, 2.738, 2.739, 2.741, 2.743, 2.744, 2.746, 2.748, 2.749, 2.751, 2.752, 2.752, 2.752, 2.752, 2.751, 2.751, 2.751, 2.751, 2.75, 2.749, 2.748, 2.747, 2.746, 2.745, 2.745, 2.744, 2.744, 2.743, 2.742,
                            2.725, 2.73, 2.734, 2.736, 2.737, 2.738, 2.74, 2.742, 2.743, 2.745, 2.746, 2.748, 2.749, 2.75, 2.751, 2.751, 2.751, 2.75, 2.75, 2.75, 2.75, 2.749, 2.748, 2.748, 2.746, 2.745, 2.745, 2.744, 2.743, 2.743, 2.742, 2.741,
                            2.724, 2.729, 2.733, 2.735, 2.736, 2.738, 2.739, 2.741, 2.742, 2.743, 2.745, 2.746, 2.748, 2.749, 2.749, 2.749, 2.749, 2.749, 2.749, 2.748, 2.748, 2.748, 2.748, 2.747, 2.745, 2.744, 2.744, 2.743, 2.743, 2.742, 2.742, 2.741,
                            2.724, 2.727, 2.731, 2.733, 2.735, 2.736, 2.738, 2.739, 2.741, 2.742, 2.744, 2.745, 2.746, 2.747, 2.748, 2.748, 2.748, 2.748, 2.747, 2.747, 2.747, 2.747, 2.746, 2.746, 2.744, 2.743, 2.743, 2.742, 2.742, 2.741, 2.741, 2.74,
                            2.723, 2.726, 2.729, 2.731, 2.734, 2.735, 2.736, 2.738, 2.739, 2.74, 2.742, 2.743, 2.745, 2.745, 2.746, 2.746, 2.746, 2.746, 2.746, 2.746, 2.746, 2.745, 2.745, 2.744, 2.743, 2.742, 2.742, 2.742, 2.741, 2.74, 2.739, 2.739,
                            2.722, 2.724, 2.726, 2.729, 2.733, 2.734, 2.735, 2.736, 2.737, 2.739, 2.741, 2.742, 2.743, 2.744, 2.744, 2.744, 2.744, 2.744, 2.744, 2.744, 2.744, 2.744, 2.743, 2.742, 2.742, 2.741, 2.741, 2.741, 2.74, 2.739, 2.738, 2.737,
                            2.721, 2.723, 2.725, 2.728, 2.731, 2.732, 2.733, 2.734, 2.735, 2.736, 2.738, 2.739, 2.74, 2.741, 2.741, 2.741, 2.741, 2.741, 2.741, 2.741, 2.741, 2.741, 2.74, 2.74, 2.739, 2.739, 2.739, 2.738, 2.738, 2.737, 2.736, 2.736,
                            2.72, 2.722, 2.723, 2.726, 2.729, 2.73, 2.731, 2.732, 2.733, 2.734, 2.735, 2.736, 2.737, 2.737, 2.737, 2.738, 2.738, 2.738, 2.738, 2.738, 2.738, 2.738, 2.737, 2.737, 2.736, 2.736, 2.735, 2.735, 2.735, 2.734, 2.734, 2.734,
                            2.719, 2.72, 2.722, 2.724, 2.727, 2.728, 2.729, 2.73, 2.731, 2.731, 2.732, 2.733, 2.734, 2.734, 2.734, 2.734, 2.735, 2.735, 2.735, 2.735, 2.735, 2.735, 2.734, 2.734, 2.733, 2.733, 2.732, 2.732, 2.732, 2.732, 2.732, 2.732
                        ]
                    },
                    {
                        "ct": 6000,
                        "table":
                        [
                            3.507, 3.514, 3.522, 3.523, 3.525, 3.526, 3.527, 3.529, 3.53, 3.532, 3.533, 3.533, 3.534, 3.534, 3.535, 3.535, 3.535, 3.535, 3.536, 3.536, 3.536, 3.536, 3.537, 3.537, 3.537, 3.537, 3.538, 3.538, 3.537, 3.537, 3.536, 3.536,
                            3.508, 3.515, 3.522, 3.524, 3.526, 3.527, 3.529, 3.53, 3.531, 3.532, 3.533, 3.534, 3.535, 3.535, 3.536, 3.536, 3.536, 3.536, 3.537, 3.538, 3.537, 3.537, 3.537, 3.538, 3.538, 3.538, 3.538, 3.538, 3.538, 3.537, 3.537, 3.537,
                            3.51, 3.516, 3.523, 3.525, 3.527, 3.529, 3.53, 3.531, 3.532, 3.533, 3.534, 3.535, 3.536, 3.536, 3.537, 3.537, 3.537, 3.538, 3.539, 3.539, 3.539, 3.538, 3.538, 3.538, 3.538, 3.538, 3.539, 3.539, 3.538, 3.538, 3.538, 3.537,
                            3.511, 3.517, 3.524, 3.526, 3.528, 3.53, 3.532, 3.533, 3.533, 3.534, 3.535, 3.536, 3.537, 3.538, 3.538, 3.539, 3.539, 3.539, 3.541, 3.541, 3.54, 3.539, 3.539, 3.539, 3.539, 3.539, 3.539, 3.539, 3.539, 3.538, 3.538, 3.538,
                            3.512, 3.519, 3.525, 3.527, 3.529, 3.531, 3.533, 3.534, 3.535, 3.536, 3.537, 3.538, 3.539, 3.54, 3.541, 3.542, 3.542, 3.543, 3.544, 3.545, 3.543, 3.542, 3.541, 3.541, 3.54, 3.54, 3.54, 3.54, 3.54, 3.539, 3.539, 3.539,
                            3.513, 3.52, 3.527, 3.529, 3.531, 3.532, 3.534, 3.535, 3.537, 3.538, 3.54, 3.541, 3.541, 3.542, 3.544, 3.545, 3.545, 3.546, 3.548, 3.548, 3.546, 3.545, 3.543, 3.542, 3.541, 3.541, 3.541, 3.541, 3.54, 3.54, 3.54, 3.54,
                            3.513, 3.52, 3.528, 3.53, 3.532, 3.534, 3.535, 3.537, 3.538, 3.54, 3.542, 3.543, 3.543, 3.545, 3.546, 3.547, 3.548, 3.549, 3.55, 3.551, 3.549, 3.547, 3.545, 3.543, 3.542, 3.541, 3.541, 3.541, 3.541, 3.541, 3.541, 3.542,
                            3.513, 3.52, 3.528, 3.53, 3.532, 3.534, 3.537, 3.538, 3.54, 3.542, 3.543, 3.544, 3.545, 3.546, 3.548, 3.549, 3.55, 3.551, 3.552, 3.551, 3.55, 3.549, 3.547, 3.545, 3.543, 3.542, 3.542, 3.541, 3.541, 3.542, 3.542, 3.543,
                            3.513, 3.52, 3.528, 3.53, 3.533, 3.535, 3.538, 3.54, 3.542, 3.544, 3.545, 3.546, 3.547, 3.548, 3.55, 3.551, 3.552, 3.552, 3.553, 3.552, 3.552, 3.551, 3.549, 3.547, 3.544, 3.543, 3.542, 3.542, 3.542, 3.542, 3.543, 3.544,
                            3.513, 3.52, 3.528, 3.53, 3.533, 3.536, 3.539, 3.541, 3.544, 3.545, 3.546, 3.547, 3.548, 3.55, 3.551, 3.552, 3.553, 3.553, 3.553, 3.553, 3.553, 3.552, 3.55, 3.548, 3.545, 3.543, 3.543, 3.542, 3.543, 3.543, 3.544, 3.546,
                            3.513, 3.52, 3.528, 3.531, 3.533, 3.536, 3.539, 3.542, 3.545, 3.546, 3.547, 3.548, 3.55, 3.551, 3.552, 3.553, 3.553, 3.554, 3.554, 3.553, 3.553, 3.552, 3.55, 3.548, 3.546, 3.544, 3.544, 3.543, 3.544, 3.545, 3.546, 3.547,
                            3.513, 3.52, 3.528, 3.531, 3.534, 3.537, 3.54, 3.543, 3.546, 3.547, 3.548, 3.55, 3.551, 3.552, 3.553, 3.553, 3.554, 3.554, 3.554, 3.554, 3.553, 3.552, 3.55, 3.548, 3.547, 3.546, 3.545, 3.544, 3.545, 3.547, 3.548, 3.549,
                            3.512, 3.52, 3.527, 3.531, 3.533, 3.537, 3.54, 3.543, 3.546, 3.548, 3.549, 3.55, 3.552, 3.553, 3.553, 3.554, 3.554, 3.554, 3.554, 3.554, 3.554, 3.553, 3.551, 3.549, 3.548, 3.546, 3.546, 3.545, 3.546, 3.548, 3.549, 3.55,
                            3.51, 3.519, 3.527, 3.53, 3.533, 3.537, 3.54, 3.544, 3.547, 3.549, 3.55, 3.551, 3.552, 3.553, 3.553, 3.554, 3.554, 3.555, 3.555, 3.555, 3.554, 3.554, 3.552, 3.55, 3.548, 3.547, 3.546, 3.546, 3.547, 3.548, 3.549, 3.55,
                            3.508, 3.518, 3.527, 3.53, 3.533, 3.536, 3.54, 3.544, 3.547, 3.549, 3.55, 3.552, 3.553, 3.553, 3.554, 3.554, 3.555, 3.555, 3.555, 3.555, 3.555, 3.554, 3.552, 3.551, 3.549, 3.548, 3.547, 3.547, 3.548, 3.549, 3.55, 3.551,
                            3.509, 3.518, 3.528, 3.531, 3.533, 3.537, 3.54, 3.544, 3.547, 3.549, 3.551, 3.552, 3.553, 3.553, 3.554, 3.554, 3.555, 3.555, 3.555, 3.555, 3.555, 3.555, 3.553, 3.551, 3.55, 3.548, 3.548, 3.547, 3.548, 3.549, 3.549, 3.55,
                            3.51, 3.519, 3.528, 3.531, 3.533, 3.537, 3.54, 3.544, 3.547, 3.549, 3.551, 3.552, 3.553, 3.553, 3.554, 3.555, 3.555, 3.555, 3.555, 3.555, 3.555, 3.555, 3.554, 3.552, 3.55, 3.549, 3.548, 3.548, 3.548, 3.548, 3.549, 3.549,
